icons/arrow-up-16.svg

<svg xmlns="http://www.w3.org/2000/svg" width="16" height="16" viewBox="0 0 16 16"><path d="M3.47 7.78a.75.75 0 010-1.06l4.25-4.25a.75.75 0 011.06 0l4.25 4.25a.751.751 0 01-.018 1.042.751.751 0 01-1.042.018L9 4.81v7.44a.75.75 0 01-1.5 0V4.81L4.53 7.78a.75.75 0 01-1.06 0z"/></svg>

<svg xmlns="http://www.w3.org/2000/svg" width="16" height="16" viewBox="0 0 16 16">
  <defs/>
  <path d="M3.47,7.78 C3.178,7.487 3.178,7.013 3.47,6.72 L7.72,2.47 C8.013,2.178 8.487,2.178 8.78,2.47 L13.03,6.72 C13.305,7.016 13.297,7.476 13.012,7.762 C12.726,8.047 12.266,8.055 11.97,7.78 L9,4.81 L9,12.25 C9,12.664 8.664,13 8.25,13 C7.836,13 7.5,12.664 7.5,12.25 L7.5,4.81 L4.53,7.78 C4.237,8.072 3.763,8.072 3.47,7.78 Z"/>
</svg>
